X: 10442
Q: "Slow."
M: 3/4
L: 1/8
K: Eb
E>C |\
(cB)(AG)(FE) | E4EF | G2(AG)(FE) | C4E>C |\
(cB)(AG)(FE) | E2C2E/F/G | {G}F2E2E2 | E4 :|
|: (B/c/d) |\
(e2d2)e2 | c2d2e2 | f2(ed)(c>B) | B4(B/c/d) |\
(e2d2)e2 | B2(cB)(AG) | G2 (3(EFG) (3(GFE) | C4E>C |\
(cB)(AG)(FE) | E2C2(E/F/G) | {G}F2E2E2 | E4 :|


